third_party/noto/noto_2/emoji_u1f687.svg

<svg enable-background="new 0 0 128 128" version="1.1" viewBox="0 0 128 128" xmlns="http://www.w3.org/2000/svg"><circle cx="64" cy="64" r="60" fill="#455A64"/><path d="M34.38,68.01c17.47-10.42,44.99-8.28,59.02-1.12c6.49,3.31,9.66,6.89,17.72,11.16c6.84,3.63,7.81,0.7,8.23-0.7   c1.39-4.9,1.13-8.01,1.13-13.36C120.49,32.8,95.2,5.77,64,5.77S7.51,32.8,7.51,64c0,4.31,0,5.84,0.91,9.87   C11.08,82.8,25.73,73.17,34.38,68.01z"/><path d="m104.05 108.56-13.67-16.23-8.33-0.47 11.3 24.47s1.49-0.93 5.44-3.49c3.96-2.55 5.26-4.28 5.26-4.28z" fill="#82AEC0"/><path d="m84.75 90.19 14.93 22.05s-2.63 1.91-3.47 2.37c-0.84 0.47-2.88 1.74-2.88 1.74l-11.28-24.48 2.7-1.68z" fill="#263238"/><path d="m23.96 108.56 13.67-16.23 8.33-0.47-11.3 24.47s-1.49-0.93-5.44-3.49c-3.96-2.55-5.26-4.28-5.26-4.28z" fill="#82AEC0"/><path d="m43.26 90.19-14.93 22.05s2.63 1.91 3.47 2.37c0.84 0.47 2.88 1.74 2.88 1.74l11.28-24.49-2.7-1.67z" fill="#263238"/><path d="m32.18 92.59c0.06 2.25 0.28 4.7 0.79 7.07 0.16 0.75 0.59 1.53 1.31 1.53h1.95c0.73 0 1.46-0.38 2.66 2.12 0.33 0.7 0.77 1.13 1.21 1.35v0.03c16.44 5.8 38.88 3.26 47.05 0.1 0.67 0.24 1.74-0.08 2.4-1.48 1.2-2.51 1.94-2.12 2.66-2.12h1.95c0.72 0 1.15-0.78 1.31-1.53 0.51-2.37 0.73-4.83 0.79-7.07h-64.08z"/><path d="m97.62 93.2h-67.24c-1.21 0-2.19-0.98-2.19-2.19v-10.8h71.6v10.8c0.01 1.21-0.97 2.19-2.17 2.19z" fill="#82AEC0"/><polygon points="99.82 82.25 28.19 82.25 28.19 85.25 53.87 85.25 53.87 90.41 73.44 90.41 73.44 85.25 99.82 85.25" fill="#37474F"/><path d="m99.16 82.56h-70.32c-0.85 0-1.55-0.66-1.55-1.48v-38.15c0-14.12 5.39-26.96 31.93-26.96h10.29c23.32 0 31.19 12.84 31.19 26.96v38.15c0 0.82-0.69 1.48-1.54 1.48z" fill="#F44336"/><path d="m27.32 41.42c0 5.17 4.75 6.29 4.75 6.29l18.34-0.05 8.55-0.01h1.93l3.78-0.01 8.17-0.02 23.15-0.05s4.69-1.49 4.69-6.15-1.34-25.75-31.16-25.46h-10.3c-31.89-0.4-31.9 20.29-31.9 25.46z" fill="#82AEC0"/><path d="m71.06 79.5h-14.12c-1.9 0-3.45-1.54-3.45-3.45v-37.08c0-1.9 1.54-3.45 3.45-3.45h14.13c1.9 0 3.45 1.54 3.45 3.45v37.08c-0.01 1.91-1.55 3.45-3.46 3.45z" fill="#F44336" stroke="#9B1313" stroke-miterlimit="10" stroke-width="2"/><path d="m48.84 23.15c1.31 0 1.81 0.77 1.81 1.73v37.22c0 0.96-0.81 1.73-1.81 1.73h-14.87c-1 0-1.81-0.77-1.81-1.73v-19.09c0-17.79 13.49-19.86 16.68-19.86z" fill="#BAE2FD"/><path d="m69.09 38.56h-10.18c-1.47 0-2.66 1.19-2.66 2.66v20.06c0 1.47 1.19 2.66 2.66 2.66h10.17c1.47 0 2.66-1.19 2.66-2.66v-20.06c0-1.47-1.19-2.66-2.65-2.66z" fill="#BAE2FD"/><path d="m48.84 23.15c1.31 0 1.81 0.77 1.81 1.73v37.22c0 0.96-0.81 1.73-1.81 1.73h-14.87c-1 0-1.81-0.77-1.81-1.73v-19.09c0-17.79 13.49-19.86 16.68-19.86z" fill="#37474F"/><path d="m69.09 38.56h-10.18c-1.47 0-2.66 1.19-2.66 2.66v20.06c0 1.47 1.19 2.66 2.66 2.66h10.17c1.47 0 2.66-1.19 2.66-2.66v-20.06c0-1.47-1.19-2.66-2.65-2.66z" fill="#37474F"/><path d="m71.65 31.17h-15.3c-1.54 0-2.79-1.25-2.79-2.79v-2.89c0-1.54 1.25-2.79 2.79-2.79h15.3c1.54 0 2.79 1.25 2.79 2.79v2.89c0 1.55-1.25 2.79-2.79 2.79z"/><rect x="55.93" y="24.95" width="3" height="3.98" fill="#FFEB3B"/><rect x="69.07" y="24.95" width="3" height="3.98" fill="#FFEB3B"/><rect x="60.53" y="24.95" width="1.98" height="3.98" fill="#FFEB3B"/><rect x="66.21" y="24.95" width="1.39" height="3.98" fill="#FFEB3B"/><path d="m47.77 26.11c1.08 0 1.49 0.64 1.49 1.43v32.19c0 0.79-0.67 1.43-1.49 1.43h-11.9c-0.82 0-1.49-0.64-1.49-1.43v-16.57c0-14.66 10.76-17.05 13.39-17.05z" fill="#BAE2FD"/><path d="m68.29 40.93h-8.3c-1.1 0-2 0.9-2 2v16.58c0 1.1 0.9 2 2 2h8.3c1.1 0 2-0.9 2-2v-16.58c0-1.1-0.9-2-2-2z" fill="#BAE2FD"/><circle cx="36.7" cy="72.75" r="4.74" fill="#FFFF8D"/><circle cx="91.33" cy="72.75" r="4.74" fill="#FFFF8D"/><path d="m79.78 23.15c-1.31 0-1.81 0.77-1.81 1.73v37.22c0 0.96 0.81 1.73 1.81 1.73h14.87c1 0 1.81-0.77 1.81-1.73v-19.09c0.01-17.79-13.48-19.86-16.68-19.86z" fill="#37474F"/><path d="m80.86 26.11c-1.08 0-1.49 0.64-1.49 1.43v32.19c0 0.79 0.67 1.43 1.49 1.43h11.9c0.82 0 1.49-0.64 1.49-1.43v-16.57c0-14.66-10.76-17.05-13.39-17.05z" fill="#BAE2FD"/><path d="m34.43 41.41 14.83 14.83v-7.06l-13.66-13.66s-0.51 1.23-0.85 2.9c-0.27 1.28-0.32 2.99-0.32 2.99z" fill="#fff"/><polygon points="79.36 41.36 94.25 56.24 94.25 49.18 79.37 34.3" fill="#fff"/><path d="m57.99 42.79 12.3 12.3v-7.06l-7.38-7.1h-3.07c-1.02 0-1.85 0.83-1.85 1.86z" fill="#fff"/><path d="m45.39 102.9 1.34-2.46c0.3-0.55 0.88-0.9 1.51-0.9h30.03c0.64 0 1.23 0.36 1.52 0.92l1.31 2.51c0.29 0.56-0.12 1.24-0.75 1.24l-34.22-0.06c-0.64 0-1.05-0.69-0.74-1.25z" fill="#424242"/><path d="m87.09 116.21-46.14-0.51c-0.92-0.01-1.5-0.86-1.08-1.56l1.73-2.87c0.37-0.61 1.09-0.99 1.88-0.99h41.2c0.85 0 1.62 0.44 1.95 1.12l1.61 3.32c0.35 0.72-0.26 1.5-1.15 1.49z" fill="#82AEC0"/></svg>

<?xml version="1.0" encoding="utf-8"?>
<!-- Generator: Adobe Illustrator 25.2.3, SVG Export Plug-In . SVG Version: 6.00 Build 0)  -->
<svg version="1.1" id="Layer_3" xmlns="http://www.w3.org/2000/svg" xmlns:xlink="http://www.w3.org/1999/xlink" x="0px" y="0px"
	 viewBox="0 0 128 128" style="enable-background:new 0 0 128 128;" xml:space="preserve">
<g>
	<circle style="fill:#455A64;" cx="64" cy="64" r="60"/>
	<path d="M34.38,68.01c17.47-10.42,44.99-8.28,59.02-1.12c6.49,3.31,9.66,6.89,17.72,11.16c6.84,3.63,7.81,0.7,8.23-0.7
		c1.39-4.9,1.13-8.01,1.13-13.36C120.49,32.8,95.2,5.77,64,5.77S7.51,32.8,7.51,64c0,4.31,0,5.84,0.91,9.87
		C11.08,82.8,25.73,73.17,34.38,68.01z"/>
	<path style="fill:#82AEC0;" d="M104.05,108.56L90.38,92.33l-8.33-0.47l11.3,24.47c0,0,1.49-0.93,5.44-3.49
		C102.75,110.29,104.05,108.56,104.05,108.56z"/>
	<path style="fill:#263238;" d="M84.75,90.19l14.93,22.05c0,0-2.63,1.91-3.47,2.37c-0.84,0.47-2.88,1.74-2.88,1.74L82.05,91.87
		L84.75,90.19z"/>
	<path style="fill:#82AEC0;" d="M23.96,108.56l13.67-16.23l8.33-0.47l-11.3,24.47c0,0-1.49-0.93-5.44-3.49
		C25.26,110.29,23.96,108.56,23.96,108.56z"/>
	<path style="fill:#263238;" d="M43.26,90.19l-14.93,22.05c0,0,2.63,1.91,3.47,2.37c0.84,0.47,2.88,1.74,2.88,1.74l11.28-24.49
		L43.26,90.19z"/>
	<g>
		<path d="M32.18,92.59c0.06,2.25,0.28,4.7,0.79,7.07c0.16,0.75,0.59,1.53,1.31,1.53h1.95c0.73,0,1.46-0.38,2.66,2.12
			c0.33,0.7,0.77,1.13,1.21,1.35l0,0.03c16.44,5.8,38.88,3.26,47.05,0.1c0.67,0.24,1.74-0.08,2.4-1.48c1.2-2.51,1.94-2.12,2.66-2.12
			h1.95c0.72,0,1.15-0.78,1.31-1.53c0.51-2.37,0.73-4.83,0.79-7.07H32.18z"/>
		<path style="fill:#82AEC0;" d="M97.62,93.2H30.38c-1.21,0-2.19-0.98-2.19-2.19v-10.8h71.6v10.8C99.8,92.22,98.82,93.2,97.62,93.2z
			"/>
		<polygon style="fill:#37474F;" points="99.82,82.25 28.19,82.25 28.19,85.25 53.87,85.25 53.87,90.41 73.44,90.41 73.44,85.25 
			99.82,85.25 		"/>
		<path style="fill:#F44336;" d="M99.16,82.56H28.84c-0.85,0-1.55-0.66-1.55-1.48V42.93c0-14.12,5.39-26.96,31.93-26.96h10.29
			c23.32,0,31.19,12.84,31.19,26.96v38.15C100.7,81.9,100.01,82.56,99.16,82.56z"/>
		<path style="fill:#82AEC0;" d="M27.32,41.42c0,5.17,4.75,6.29,4.75,6.29l18.34-0.05l8.55-0.01l1.93,0l3.78-0.01l8.17-0.02
			l23.15-0.05c0,0,4.69-1.49,4.69-6.15s-1.34-25.75-31.16-25.46H59.22C27.33,15.56,27.32,36.25,27.32,41.42z"/>
		<path style="fill:#F44336;stroke:#9B1313;stroke-width:2;stroke-miterlimit:10;" d="M71.06,79.5H56.94c-1.9,0-3.45-1.54-3.45-3.45
			V38.97c0-1.9,1.54-3.45,3.45-3.45h14.13c1.9,0,3.45,1.54,3.45,3.45v37.08C74.51,77.96,72.97,79.5,71.06,79.5z"/>
		<g>
			<path style="fill:#BAE2FD;" d="M48.84,23.15c1.31,0,1.81,0.77,1.81,1.73V62.1c0,0.96-0.81,1.73-1.81,1.73H33.97
				c-1,0-1.81-0.77-1.81-1.73V43.01C32.16,25.22,45.65,23.15,48.84,23.15z"/>
		</g>
		<g>
			<path style="fill:#BAE2FD;" d="M69.09,38.56H58.91c-1.47,0-2.66,1.19-2.66,2.66v20.06c0,1.47,1.19,2.66,2.66,2.66h10.17
				c1.47,0,2.66-1.19,2.66-2.66V41.22C71.74,39.75,70.55,38.56,69.09,38.56z"/>
		</g>
		<path style="fill:#37474F;" d="M48.84,23.15c1.31,0,1.81,0.77,1.81,1.73V62.1c0,0.96-0.81,1.73-1.81,1.73H33.97
			c-1,0-1.81-0.77-1.81-1.73V43.01C32.16,25.22,45.65,23.15,48.84,23.15z"/>
		<path style="fill:#37474F;" d="M69.09,38.56H58.91c-1.47,0-2.66,1.19-2.66,2.66v20.06c0,1.47,1.19,2.66,2.66,2.66h10.17
			c1.47,0,2.66-1.19,2.66-2.66V41.22C71.74,39.75,70.55,38.56,69.09,38.56z"/>
		<path d="M71.65,31.17h-15.3c-1.54,0-2.79-1.25-2.79-2.79v-2.89c0-1.54,1.25-2.79,2.79-2.79h15.3c1.54,0,2.79,1.25,2.79,2.79v2.89
			C74.44,29.93,73.19,31.17,71.65,31.17z"/>
		<rect x="55.93" y="24.95" style="fill:#FFEB3B;" width="3" height="3.98"/>
		<rect x="69.07" y="24.95" style="fill:#FFEB3B;" width="3" height="3.98"/>
		<rect x="60.53" y="24.95" style="fill:#FFEB3B;" width="1.98" height="3.98"/>
		<rect x="66.21" y="24.95" style="fill:#FFEB3B;" width="1.39" height="3.98"/>
		<path style="fill:#BAE2FD;" d="M47.77,26.11c1.08,0,1.49,0.64,1.49,1.43v32.19c0,0.79-0.67,1.43-1.49,1.43h-11.9
			c-0.82,0-1.49-0.64-1.49-1.43V43.16C34.38,28.5,45.14,26.11,47.77,26.11z"/>
		<g>
			<path style="fill:#BAE2FD;" d="M68.29,40.93h-8.3c-1.1,0-2,0.9-2,2v16.58c0,1.1,0.9,2,2,2h8.3c1.1,0,2-0.9,2-2V42.93
				C70.29,41.83,69.39,40.93,68.29,40.93z"/>
		</g>
		<circle style="fill:#FFFF8D;" cx="36.7" cy="72.75" r="4.74"/>
		<circle style="fill:#FFFF8D;" cx="91.33" cy="72.75" r="4.74"/>
		<path style="fill:#37474F;" d="M79.78,23.15c-1.31,0-1.81,0.77-1.81,1.73V62.1c0,0.96,0.81,1.73,1.81,1.73h14.87
			c1,0,1.81-0.77,1.81-1.73V43.01C96.47,25.22,82.98,23.15,79.78,23.15z"/>
		<path style="fill:#BAE2FD;" d="M80.86,26.11c-1.08,0-1.49,0.64-1.49,1.43v32.19c0,0.79,0.67,1.43,1.49,1.43h11.9
			c0.82,0,1.49-0.64,1.49-1.43V43.16C94.25,28.5,83.49,26.11,80.86,26.11z"/>
		<path style="fill:#FFFFFF;" d="M34.43,41.41l14.83,14.83v-7.06L35.6,35.52c0,0-0.51,1.23-0.85,2.9
			C34.48,39.7,34.43,41.41,34.43,41.41z"/>
		<polygon style="fill:#FFFFFF;" points="79.36,41.36 94.25,56.24 94.25,49.18 79.37,34.3 		"/>
		<path style="fill:#FFFFFF;" d="M57.99,42.79l12.3,12.3v-7.06l-7.38-7.1h-3.07C58.82,40.93,57.99,41.76,57.99,42.79L57.99,42.79z"
			/>
	</g>
	<path style="fill:#424242;" d="M45.39,102.9l1.34-2.46c0.3-0.55,0.88-0.9,1.51-0.9h30.03c0.64,0,1.23,0.36,1.52,0.92l1.31,2.51
		c0.29,0.56-0.12,1.24-0.75,1.24l-34.22-0.06C45.49,104.15,45.08,103.46,45.39,102.9z"/>
	<path style="fill:#82AEC0;" d="M87.09,116.21l-46.14-0.51c-0.92-0.01-1.5-0.86-1.08-1.56l1.73-2.87c0.37-0.61,1.09-0.99,1.88-0.99
		h41.2c0.85,0,1.62,0.44,1.95,1.12l1.61,3.32C88.59,115.44,87.98,116.22,87.09,116.21z"/>
</g>
</svg>
